X: 1
T: Bosun Bill
%%vocalfont times 10
%%notecolors 1
%%notelabels 1
M: 2/4
L: 1/8
K: Eb
G4 | .c2 .G2 | c3 G | .A3/2.A/2 ABA | G3 E | .F3/2.F/2 FGF | E3/2D/2 C3/2_D/2 | D3/2D/2 | D_D=D |
G4 | .c2 .G2 | c3 G | AGA B3/2A/2 | G3 E | FGA G3/2F/2 | Gcd e3/2c/2 | .[^F2d] .[=F2G] | c2 B3/2A/2 |

